X:107
T:The Green Mountain
R:reel
M:4/4
L:1/8
K:Dmaj
B|AF~F2 EGFE|DF~F2 ABde|f2df efdB|Adfd efdB|
AF~F2 EGFE|DF~F2 ABde|f2df efdB|AFEF D3:|
e|faaf bfaf|defd e2de|fBBA Bcde|fdgf e2de|
faaf bfaf|defd e2de|f2df efdB|AFEF D3:|

